X:1
T:Title
%%score { ( 1 3 ) | ( 2 4 ) }
L:1/8
M:4/4
K:F
V:1 treble nm="Grand Piano"
V:3 treble 
V:2 bass 
V:4 bass 
V:1
 z4 z2[Q:1/4=100] F>G | A2 A>G F2 A2 | [GB]2 [GB]>[FA] [EG]2 [EG]>[EG] | [FA]2 [GB]2 [Ac]2 [FA]2 | %4
 [EG]6 [EG]>[FA] | [GB]2 [GB]>[FA] [EG]2 [GB]2 | A2 A>B c2 c2 | c2 G>c d e2 d | %8
[M:3/4] c2- [Bc-]2 [Ac]2 |[M:1/4] [Gc]2 |[M:4/4] c2 A>B c d2 [CAc] | B2- [EB-][FB-] [GB]2 [GB]2 | %12
 [GB]2 G>A B c2 [CGB] | A6 z2 |[M:3/4] A2 A>A [GA]2 |[M:1/4] [GA][GA] | %16
[M:9/8] [^FA] [Fd]2 [DFc] [DGB]2- [DGB] [B,DG]2 |[M:4/4] [A,CF]2 E>F A A3 | %18
[M:7/8] [CFA] [A,CF]2 [B,CG] [A,CF]3 |] %19
V:2
 z4 z2 [F,A,]>[F,B,F] | [F,CF]2 [F,CF]>[F,B,E] [F,A,]2 [F,CF]2 | %2
 [C,C]2 [C,C]>[C,C] [C,C]2 [C,C]>[C,C] | [F,C]2 [F,C]2 [F,F]2 [F,C]2 | [C,C]6 [C,C]>[C,C] | %5
 [C,C]2 [C,C]>[C,C] [C,C]2 [C,C]2 | [F,CF]2 [F,CF]>[G,CE] [A,CF]2 [_A,C_E]2 | %7
 [G,CE]2 [G,CE]>[G,CE] [G,=B,F] [G,CG]2 [G,B,F] |[M:3/4][K:bass] z2 D2 C2 |[M:1/4] [C,B,]2 | %10
[M:4/4] [F,A,F]2[K:treble] F>G A B2[K:bass] F, | [C,C]2 [C,C]2 [C,C]2 [C,C]2 | %12
 [C,C]2[K:treble] E>F G A2[K:bass] C, | [F,CF]2 [F,A,]2 [F,C]2 [F,A,]>[F,B,F] | %14
[M:3/4] [F,CF]2 [F,CF]>[F,DF] [E,^C]2 |[M:1/4] [E,C][E,C] |[M:9/8] [D,D] [D,A,]2 D, G,2- G, B,,2 | %17
[M:4/4] C,2 G,>A, C C3 |[M:7/8] C, C,2 C, F,3 |] %19
V:3
 x8 | x8 | x8 | x8 | x8 | x8 | x8 | x8 |[M:3/4] [CE]2 z2 z2 |[M:1/4] x2 |[M:4/4] x8 | G2 z2 z4 | %12
 x8 | z2 CD F2 F>G |[M:3/4] x6 |[M:1/4] x2 |[M:9/8] x9 |[M:4/4] x8 |[M:7/8] x7 |] %19
V:4
 x8 | x8 | x8 | x8 | x8 | x8 | x8 | x8 |[M:3/4][K:bass] C,6 |[M:1/4] x2 | %10
[M:4/4] x2[K:treble] x5[K:bass] x | x8 | x2[K:treble] x5[K:bass] x | x8 |[M:3/4] x6 |[M:1/4] x2 | %16
[M:9/8] x9 |[M:4/4] x8 |[M:7/8] x7 |] %19

